X: 38807
T: Sue Morley's
R: jig
M: 6/8
K: Edorian
|:~e3 ~f3|edB AB/c/d|~e3 geb|eae ged|
~e3 ~f3|edB AB/c/d|~e3 fed|1 ~e3 Bcd:|2 ~e3 edc||
|:~B3 ~e3|dBA FGA|~B3 ~g3|fed edc|
~B3 ~e3|dBA FGA|~B3 AFD|1 ~E3 E2A:|2 ~E3 E2d||

